icons/svg/sport/baseball2.svg

<?xml version="1.0" encoding="UTF-8" standalone="no"?>
<!-- Created with Inkscape (http://www.inkscape.org/) -->

<svg
   xmlns:dc="http://purl.org/dc/elements/1.1/"
   xmlns:cc="http://creativecommons.org/ns#"
   xmlns:rdf="http://www.w3.org/1999/02/22-rdf-syntax-ns#"
   xmlns:svg="http://www.w3.org/2000/svg"
   xmlns="http://www.w3.org/2000/svg"
   xmlns:sodipodi="http://sodipodi.sourceforge.net/DTD/sodipodi-0.dtd"
   xmlns:inkscape="http://www.inkscape.org/namespaces/inkscape"
   version="1.0"
   width="580"
   height="580"
   id="svg2"
   sodipodi:version="0.32"
   inkscape:version="0.48.4 r9939"
   sodipodi:docname="bowling.svg"
   inkscape:output_extension="org.inkscape.output.svg.inkscape">
  <metadata
     id="metadata2975">
    <rdf:RDF>
      <cc:Work
         rdf:about="">
        <dc:format>image/svg+xml</dc:format>
        <dc:type
           rdf:resource="http://purl.org/dc/dcmitype/StillImage" />
        <cc:license
           rdf:resource="http://web.resource.org/cc/PublicDomain" />
        <dc:language>en</dc:language>
        <dc:title></dc:title>
      </cc:Work>
    </rdf:RDF>
  </metadata>
  <sodipodi:namedview
     inkscape:window-height="1004"
     inkscape:window-width="1920"
     inkscape:pageshadow="2"
     inkscape:pageopacity="0.0"
     guidetolerance="10.0"
     gridtolerance="10.0"
     objecttolerance="10.0"
     borderopacity="1.0"
     bordercolor="#666666"
     pagecolor="#ffffff"
     id="base"
     inkscape:zoom="0.65172414"
     inkscape:cx="454.78902"
     inkscape:cy="328.41675"
     inkscape:window-x="1680"
     inkscape:window-y="0"
     inkscape:current-layer="svg2"
     showgrid="false"
     inkscape:window-maximized="1" />
  <defs
     id="defs4">
    <inkscape:perspective
       sodipodi:type="inkscape:persp3d"
       inkscape:vp_x="0 : 290 : 1"
       inkscape:vp_y="0 : 1000 : 0"
       inkscape:vp_z="580 : 290 : 1"
       inkscape:persp3d-origin="290 : 193.33333 : 1"
       id="perspective10" />
  </defs>
  <g
     id="g1327">
    <path
       d="M 66.275,1.768 C 24.94,1.768 1.704,23.139 1.704,66.804 l 0,450.123 c 0,40.844 20.895,62.229 62.192,62.229 l 452.024,0 c 41.307,0 62.229,-20.315 62.229,-62.229 l 0,-450.123 c 0,-42.601 -20.922,-65.036 -63.521,-65.036 -0.004,0 -448.495,-0.143 -448.353,0 z"
       style="fill:#111111;stroke:#eeeeee;stroke-width:3.40799999"
       id="path1329"
       inkscape:connector-curvature="0" />
  </g>
  <path
     inkscape:connector-curvature="0"
     d="M 393.4922,257.49186 506.56402,144.42004 c 16.15313,-16.15313 20.7683,-43.84418 6.92276,-64.612493 -18.4607,-25.383463 -53.07452,-27.691051 -73.84282,-6.922759 L 324.26455,188.26421 C 285.03556,227.4932 201.96239,352.10296 151.19544,402.8699 l -62.304868,62.30488 c -6.922769,-6.92276 -18.460706,-6.92276 -25.383475,0 l 0,0 c -6.92276,6.92277 -6.92276,18.46071 0,25.38347 l 25.383475,25.38348 c 6.922748,6.92277 18.460688,6.92277 25.383468,0 l 0,0 c 6.92276,-6.92276 6.92276,-18.4607 0,-25.38348 l 64.61247,-59.99729 c 50.76694,-50.76694 175.3767,-131.53252 214.60569,-173.0691 z"
     id="path3"
     style="fill:#ffffff;fill-opacity:1" />
  <g
     transform="matrix(23.075882,0,0,23.075882,15.047748,15.195085)"
     id="g5"
     style="fill:#ffffff;fill-opacity:1">
    <path
       inkscape:connector-curvature="0"
       d="M 10,4.4 C 9.6,4.5 9.3,4.7 9,5 8.7,5.3 8.5,5.6 8.4,6 9.2,5.8 9.8,5.2 10,4.4 z"
       id="path7"
       style="fill:#ffffff;fill-opacity:1" />
    <path
       inkscape:connector-curvature="0"
       d="M 8.7,4.7 C 9.1,4.3 9.6,4.1 10,3.9 10,2.9 9.1,2 8.1,2 8,2.4 7.7,2.9 7.3,3.3 6.9,3.7 6.4,4 6,4.1 6,5.1 6.9,6 7.9,6 8,5.6 8.3,5.1 8.7,4.7 z"
       id="path9"
       style="fill:#ffffff;fill-opacity:1" />
    <path
       inkscape:connector-curvature="0"
       d="M 7.6,2 C 6.8,2.2 6.2,2.8 6,3.6 6.4,3.5 6.7,3.3 7,3 7.3,2.7 7.5,2.4 7.6,2 z"
       id="path11"
       style="fill:#ffffff;fill-opacity:1" />
  </g>
</svg>

<svg width="580" height="580" viewBox="0 0 580 580" fill="none" xmlns="http://www.w3.org/2000/svg">
<g clip-path="url(#clip0)">
<path d="M66.2751 1.76815C24.9401 1.76815 1.7041 23.1391 1.7041 66.8041V516.927C1.7041 557.771 22.5991 579.156 63.8961 579.156H515.92C557.227 579.156 578.149 558.841 578.149 516.927V66.8041C578.149 24.2031 557.227 1.76815 514.628 1.76815C514.624 1.76815 66.1331 1.62515 66.2751 1.76815V1.76815Z" fill="#111111" stroke="#EEEEEE" stroke-width="3.408"/>
<path d="M393.492 257.492L506.564 144.42C522.717 128.267 527.332 100.576 513.487 79.8076C495.026 54.4241 460.412 52.1165 439.644 72.8848L324.264 188.264C285.035 227.493 201.962 352.103 151.195 402.87L88.8905 465.175C81.9677 458.252 70.4298 458.252 63.507 465.175C56.5843 472.098 56.5843 483.636 63.507 490.558L88.8905 515.942C95.8132 522.865 107.351 522.865 114.274 515.942C121.197 509.019 121.197 497.481 114.274 490.558L178.886 430.561C229.653 379.794 354.263 299.028 393.492 257.492V257.492Z" fill="white"/>
<path d="M245.807 116.729C236.576 119.037 229.654 123.652 222.731 130.575C215.808 137.497 211.193 144.42 208.885 153.65C227.346 149.035 241.191 135.19 245.807 116.729Z" fill="white"/>
<path d="M215.808 123.652C225.038 114.421 236.576 109.806 245.806 105.191C245.806 82.115 225.038 61.3467 201.962 61.3467C199.655 70.577 192.732 82.115 183.502 91.3453C174.271 100.576 162.733 107.498 153.503 109.806C153.503 132.882 174.271 153.65 197.347 153.65C199.655 144.42 206.577 132.882 215.808 123.652Z" fill="white"/>
<path d="M190.424 61.3467C171.964 65.9619 158.118 79.8074 153.503 98.2681C162.733 95.9605 169.656 91.3453 176.579 84.4226C183.502 77.4998 188.117 70.577 190.424 61.3467Z" fill="white"/>
</g>
<defs>
<clipPath id="clip0">
<path d="M0 0H580V580H0V0Z" fill="white"/>
</clipPath>
</defs>
</svg>
